X:858
T:Branohm
T:Maire Breathnach's #1
R:reel
C:Maire Breathnach
D:Solas
Z:id:hn-reel-858
M:C|
L:1/8
K:Ador
c2Bc AGED | CDEF GABd | c2Bc AGEF | GEDB, A,2AB |
c2Bc AGED | CDEF GABc | dB~B2 cA~A2 |1 GEDB, A,2AB :|2 GEDB, A,4 ||
K:Amix
|: c3B ABcd | eAce g2fg | eaab agef | gedB cBAB |
c3B ABcd | eAce ~g3a | bagb agef | gedB A4 :|

